; generated by PrusaSlicer 2.5.0+win64 on 2023-05-10 at 19:24:09 UTC


;
;

;
;
; 

; external perimeters extrusion width = 0.45mm
; perimeters extrusion width = 0.45mm
; infill extrusion width = 0.45mm
; solid infill extrusion width = 0.45mm
; top infill extrusion width = 0.40mm
; first layer extrusion width = 0.42mm

M73 P0 R22
M201 X2500 Y2500 Z400 E5000 ; sets maximum accelerations, mm/sec^2
M203 X180 Y180 Z12 E80 ; sets maximum feedrates, mm / sec
M204 P1250 R1250 T2500 ; sets acceleration (P, T) and retract acceleration (R), mm/sec^2
M205 X8.00 Y8.00 Z2.00 E10.00 ; sets the jerk limits, mm/sec
M205 S0 T0 ; sets the minimum extruding and travel feed rate, mm/sec
M107
;TYPE:Custom
M862.3 P "MINI" ; printer model check
G90 ; use absolute coordinates
M83 ; extruder relative mode
M104 S170 ; set extruder temp for bed leveling
M140 S60 ; set bed temp
M109 R170 ; wait for bed leveling temp
M190 S60 ; wait for bed temp
M204 T1250 ; set travel acceleration
G28 ; home all without mesh bed level
G29 ; mesh bed leveling 
M204 T2500 ; restore travel acceleration
M104 S215 ; set extruder temp
G92 E0
G1 Y-2 X179 F2400
G1 Z3 F720
M109 S215 ; wait for extruder temp

; intro line
G1 X170 F1000
G1 Z0.2 F720
G1 X110 E8 F900
G1 X40 E10 F700
G92 E0

M221 S95 ; set flow
G21 ; set units to millimeters
G90 ; use absolute coordinates
M83 ; use relative distances for extrusion
M900 K0.2 ; Filament gcode LA 1.5
; ; Filament gcode LA 1.0
M107
;LAYER_CHANGE
;Z:0.2
;HEIGHT:0.2
;BEFORE_LAYER_CHANGE
G92 E0.0
;0.2


G1 E-3.2 F4200
M73 P1 R22
G1 Z.2 F720
;AFTER_LAYER_CHANGE
;0.2
G1 Z.4
G1 X63.706 Y63.43 F9000
G1 Z.2 F720
G1 E3.2 F2400
M204 P800
;TYPE:Skirt/Brim
;WIDTH:0.42
G1 F1200
G1 X66.513 Y60.919 E.11809
G1 X69.559 Y58.704 E.11809
G1 X72.741 Y56.842 E.11559
G1 X76.165 Y55.274 E.11809
G1 X79.73 Y54.059 E.11809
G1 X83.399 Y53.208 E.11809
G1 X87.135 Y52.731 E.11809
G1 X90.773 Y52.631 E.11414
G1 X93.486 Y52.784 E.08519
G1 X97.214 Y53.324 E.11809
G1 X100.868 Y54.236 E.11809
G1 X104.411 Y55.512 E.11809
G1 X107.809 Y57.137 E.11809
G1 X111.025 Y59.096 E.11809
G1 X113.967 Y61.318 E.11558
G1 X116.732 Y63.875 E.11809
G1 X119.225 Y66.698 E.11809
G1 X120.769 Y68.779 E.08125
G1 X122.748 Y71.983 E.11809
G1 X124.395 Y75.371 E.11809
G1 X125.693 Y78.906 E.11808
G1 X126.628 Y82.554 E.11809
G1 X127.191 Y86.278 E.11808
G1 X127.377 Y90.04 E.11809
G1 X127.183 Y93.801 E.11809
G1 X126.612 Y97.524 E.11809
G1 X125.669 Y101.17 E.11809
G1 X124.364 Y104.703 E.11809
G1 X122.71 Y108.087 E.11809
G1 X120.724 Y111.287 E.11809
G1 X118.477 Y114.21 E.11559
G1 X115.897 Y116.953 E.11808
G1 X113.053 Y119.422 E.11809
G1 X109.975 Y121.593 E.11809
G1 X106.695 Y123.443 E.11808
G1 X103.362 Y124.907 E.11414
G1 X100.791 Y125.787 E.08519
G1 X97.135 Y126.691 E.11809
G1 X93.407 Y127.223 E.11809
G1 X89.644 Y127.378 E.11809
G1 X85.964 Y127.161 E.11559
G1 X82.245 Y126.566 E.11809
G1 X78.604 Y125.601 E.11809
G1 X75.08 Y124.273 E.11809
G1 X71.706 Y122.598 E.11809
G1 X69.492 Y121.253 E.08125
G1 X66.451 Y119.031 E.11809
G1 X63.649 Y116.514 E.11809
G1 X61.115 Y113.728 E.11809
G1 X58.874 Y110.701 E.11809
G1 X56.986 Y107.534 E.11559
G1 X55.389 Y104.124 E.11809
G1 X54.144 Y100.569 E.11809
G1 X53.262 Y96.908 E.11809
G1 X52.753 Y93.176 E.11809
G1 X52.623 Y89.412 E.11809
G1 X52.872 Y85.654 E.11809
G1 X53.498 Y81.94 E.11809
G1 X54.494 Y78.308 E.11809
G1 X55.851 Y74.795 E.11809
G1 X57.554 Y71.436 E.11809
G1 X59.515 Y68.369 E.11414
M73 P2 R22
G1 X61.166 Y66.211 E.08519
G1 X63.666 Y63.474 E.11621
M204 P1000
; printing object helper_disk.stl id:0 copy 0
G1 E-2.24 F4200
;WIPE_START
G1 F7200
G1 X64.89 Y62.375 E-.912
;WIPE_END
G1 E-.048 F4200
G1 Z.4 F720
G1 X92.011 Y55.844 F9000
G1 Z.2 F720
G1 E3.2 F2400
M204 P800
;TYPE:Perimeter
;WIDTH:0.419999
G1 F1200
G1 X93.155 Y55.931 E.03595
G1 X94.297 Y56.056 E.03604
G1 X95.435 Y56.22 E.03605
G1 X96.567 Y56.421 E.03604
G1 X97.691 Y56.661 E.03604
G1 X98.807 Y56.938 E.03604
G1 X99.913 Y57.253 E.03605
G1 X101.007 Y57.604 E.03604
G1 X102.089 Y57.992 E.03604
G1 X103.158 Y58.417 E.03605
G1 X104.211 Y58.877 E.03604
G1 X105.249 Y59.372 E.03605
G1 X106.269 Y59.901 E.03604
G1 X107.271 Y60.465 E.03604
G1 X108.253 Y61.062 E.03605
G1 X109.215 Y61.691 E.03604
G1 X110.155 Y62.353 E.03604
G1 X111.073 Y63.046 E.03604
G1 X111.966 Y63.769 E.03604
G1 X112.835 Y64.522 E.03604
G1 X113.678 Y65.303 E.03605
G1 X114.494 Y66.113 E.03604
G1 X115.283 Y66.949 E.03605
G1 X116.043 Y67.812 E.03604
G1 X116.774 Y68.699 E.03605
G1 X117.474 Y69.611 E.03604
G1 X118.144 Y70.545 E.03605
G1 X118.781 Y71.502 E.03604
G1 X119.386 Y72.479 E.03604
G1 X119.958 Y73.476 E.03604
G1 X120.497 Y74.492 E.03604
G1 X120.947 Y75.416 E.03223
G1 X121.469 Y76.576 E.03989
G1 X121.902 Y77.64 E.03602
G1 X122.3 Y78.719 E.03604
G1 X122.66 Y79.81 E.03604
G1 X122.984 Y80.913 E.03605
G1 X123.271 Y82.027 E.03604
G1 X123.52 Y83.149 E.03604
G1 X123.731 Y84.279 E.03605
G1 X123.904 Y85.415 E.03604
G1 X124.039 Y86.557 E.03605
G1 X124.136 Y87.702 E.03604
G1 X124.194 Y88.851 E.03604
G1 X124.213 Y90 E.03604
G1 X124.194 Y91.149 E.03604
G1 X124.136 Y92.298 E.03604
G1 X124.039 Y93.443 E.03604
G1 X123.904 Y94.585 E.03605
G1 X123.731 Y95.721 E.03604
G1 X123.52 Y96.851 E.03605
G1 X123.271 Y97.973 E.03604
G1 X122.984 Y99.087 E.03604
G1 X122.66 Y100.19 E.03605
G1 X122.3 Y101.281 E.03604
G1 X121.902 Y102.36 E.03604
G1 X121.469 Y103.425 E.03604
G1 X121 Y104.474 E.03604
G1 X120.497 Y105.508 E.03604
G1 X119.958 Y106.524 E.03604
G1 X119.386 Y107.521 E.03604
G1 X118.781 Y108.498 E.03604
G1 X118.144 Y109.455 E.03604
G1 X117.474 Y110.389 E.03605
G1 X116.774 Y111.301 E.03604
G1 X116.043 Y112.188 E.03605
G1 X115.283 Y113.051 E.03604
G1 X114.494 Y113.887 E.03605
G1 X113.678 Y114.697 E.03604
G1 X112.835 Y115.478 E.03605
G1 X111.966 Y116.231 E.03604
G1 X111.073 Y116.954 E.03604
G1 X110.155 Y117.647 E.03605
G1 X109.215 Y118.309 E.03604
G1 X108.253 Y118.938 E.03604
G1 X107.271 Y119.535 E.03605
G1 X106.269 Y120.099 E.03604
G1 X105.249 Y120.628 E.03604
G1 X104.211 Y121.123 E.03605
G1 X103.158 Y121.583 E.03604
G1 X102.202 Y121.963 E.03223
G1 X101.006 Y122.396 E.03989
G1 X99.913 Y122.747 E.03601
G1 X98.807 Y123.062 E.03605
G1 X97.691 Y123.339 E.03604
G1 X96.567 Y123.579 E.03604
G1 X95.435 Y123.78 E.03604
G1 X94.297 Y123.944 E.03605
G1 X93.155 Y124.069 E.03604
G1 X92.008 Y124.156 E.03604
G1 X90.981 Y124.199 E.03223
G1 X89.709 Y124.214 E.03989
G1 X88.561 Y124.185 E.03602
G1 X87.413 Y124.118 E.03604
G1 X86.269 Y124.011 E.03605
G1 X85.128 Y123.867 E.03604
G1 X83.993 Y123.684 E.03604
G1 X82.865 Y123.464 E.03604
G1 X81.745 Y123.205 E.03604
G1 X80.634 Y122.909 E.03604
G1 X79.534 Y122.576 E.03605
G1 X78.445 Y122.206 E.03604
G1 X77.37 Y121.8 E.03604
G1 X76.309 Y121.358 E.03604
G1 X75.263 Y120.88 E.03604
G1 X74.343 Y120.422 E.03223
G1 X73.222 Y119.821 E.03989
G1 X72.231 Y119.241 E.03601
G1 X71.258 Y118.627 E.03605
G1 X70.307 Y117.982 E.03604
G1 X69.378 Y117.304 E.03604
G1 X68.473 Y116.596 E.03605
G1 X67.591 Y115.858 E.03604
G1 X66.735 Y115.091 E.03604
G1 X65.906 Y114.295 E.03604
G1 X65.103 Y113.472 E.03604
G1 X64.328 Y112.623 E.03605
G1 X63.583 Y111.748 E.03604
G1 X62.867 Y110.848 E.03604
G1 X62.182 Y109.925 E.03604
G1 X61.529 Y108.979 E.03604
G1 X60.907 Y108.012 E.03605
G1 X60.318 Y107.025 E.03604
G1 X59.763 Y106.018 E.03604
G1 X59.242 Y104.993 E.03605
G1 X58.756 Y103.952 E.03604
G1 X58.305 Y102.894 E.03605
G1 X57.89 Y101.822 E.03604
G1 X57.511 Y100.737 E.03604
G1 X57.168 Y99.64 E.03604
G1 X56.863 Y98.531 E.03604
G1 X56.623 Y97.532 E.03223
G1 X56.365 Y96.286 E.03989
G1 X56.173 Y95.154 E.03602
G1 X56.019 Y94.014 E.03604
G1 X55.903 Y92.871 E.03604
G1 X55.826 Y91.724 E.03605
G1 X55.787 Y90.575 E.03604
G1 X55.787 Y89.425 E.03604
G1 X55.826 Y88.276 E.03604
G1 X55.903 Y87.129 E.03605
G1 X56.019 Y85.986 E.03604
G1 X56.173 Y84.846 E.03604
G1 X56.365 Y83.713 E.03605
G1 X56.595 Y82.587 E.03604
G1 X56.863 Y81.469 E.03604
G1 X57.168 Y80.36 E.03604
G1 X57.511 Y79.263 E.03605
G1 X57.89 Y78.178 E.03604
G1 X58.305 Y77.106 E.03604
G1 X58.756 Y76.048 E.03605
G1 X59.242 Y75.007 E.03604
G1 X59.763 Y73.982 E.03605
G1 X60.318 Y72.975 E.03604
G1 X60.907 Y71.988 E.03604
G1 X61.529 Y71.021 E.03605
G1 X62.113 Y70.175 E.03223
G1 X62.868 Y69.151 E.03989
G1 X63.583 Y68.252 E.03601
G1 X64.328 Y67.377 E.03604
G1 X65.103 Y66.528 E.03604
G1 X65.906 Y65.705 E.03604
G1 X66.735 Y64.909 E.03604
G1 X67.591 Y64.142 E.03604
G1 X68.473 Y63.404 E.03604
G1 X69.378 Y62.696 E.03605
G1 X70.307 Y62.018 E.03605
G1 X71.258 Y61.373 E.03604
G1 X72.231 Y60.759 E.03605
G1 X73.223 Y60.179 E.03604
G1 X74.234 Y59.632 E.03604
G1 X75.263 Y59.12 E.03605
G1 X76.309 Y58.642 E.03604
G1 X77.37 Y58.2 E.03604
G1 X78.445 Y57.794 E.03604
G1 X79.534 Y57.424 E.03604
G1 X80.634 Y57.091 E.03605
G1 X81.745 Y56.795 E.03604
G1 X82.865 Y56.536 E.03604
G1 X83.993 Y56.316 E.03604
G1 X85.128 Y56.133 E.03604
G1 X86.269 Y55.989 E.03604
G1 X87.413 Y55.882 E.03605
G1 X88.561 Y55.815 E.03604
G1 X89.71 Y55.786 E.03604
G1 X91.951 Y55.842 E.07029
M204 P1000
G1 X92.031 Y55.467 F9000
M204 P800
;TYPE:External perimeter
G1 F1200
G1 X93.189 Y55.555 E.03641
G1 X94.345 Y55.682 E.03644
G1 X95.495 Y55.847 E.03644
G1 X96.639 Y56.051 E.03644
G1 X97.776 Y56.293 E.03644
G1 X98.904 Y56.574 E.03644
G1 X100.022 Y56.892 E.03644
G1 X101.128 Y57.247 E.03644
G1 X102.222 Y57.64 E.03644
G1 X103.303 Y58.069 E.03644
G1 X104.368 Y58.534 E.03644
G1 X105.417 Y59.034 E.03644
G1 X106.448 Y59.57 E.03644
G1 X107.461 Y60.139 E.03644
G1 X108.455 Y60.743 E.03644
G1 X109.427 Y61.379 E.03644
G1 X110.377 Y62.048 E.03644
G1 X111.305 Y62.749 E.03644
G1 X112.208 Y63.48 E.03644
G1 X113.087 Y64.241 E.03644
G1 X113.939 Y65.031 E.03644
G1 X114.764 Y65.85 E.03644
G1 X115.562 Y66.695 E.03644
G1 X116.33 Y67.567 E.03644
G1 X117.069 Y68.464 E.03644
G1 X117.777 Y69.386 E.03644
G1 X118.454 Y70.331 E.03644
G1 X119.099 Y71.298 E.03644
G1 X119.71 Y72.286 E.03644
G1 X120.289 Y73.294 E.03644
G1 X120.833 Y74.321 E.03644
G1 X121.289 Y75.256 E.03261
G1 X121.816 Y76.428 E.04028
M73 P3 R22
G1 X122.254 Y77.504 E.03643
G1 X122.656 Y78.594 E.03644
G1 X123.02 Y79.698 E.03644
G1 X123.348 Y80.813 E.03645
G1 X123.638 Y81.939 E.03644
G1 X123.889 Y83.073 E.03644
G1 X124.103 Y84.216 E.03644
G1 X124.278 Y85.365 E.03644
G1 X124.414 Y86.519 E.03644
G1 X124.512 Y87.677 E.03644
G1 X124.57 Y88.838 E.03644
G1 X124.59 Y90 E.03644
G1 X124.57 Y91.162 E.03644
G1 X124.512 Y92.323 E.03644
G1 X124.414 Y93.481 E.03644
G1 X124.278 Y94.635 E.03644
G1 X124.103 Y95.784 E.03644
G1 X123.889 Y96.927 E.03644
G1 X123.638 Y98.061 E.03644
G1 X123.348 Y99.187 E.03644
G1 X123.02 Y100.302 E.03645
G1 X122.656 Y101.406 E.03644
G1 X122.254 Y102.496 E.03644
G1 X121.816 Y103.573 E.03644
G1 X121.342 Y104.634 E.03644
G1 X120.833 Y105.679 E.03644
G1 X120.289 Y106.706 E.03644
G1 X119.71 Y107.714 E.03644
G1 X119.099 Y108.702 E.03644
G1 X118.454 Y109.669 E.03644
G1 X117.777 Y110.614 E.03644
G1 X117.069 Y111.536 E.03644
G1 X116.33 Y112.433 E.03644
G1 X115.562 Y113.305 E.03644
G1 X114.764 Y114.15 E.03644
G1 X113.939 Y114.969 E.03644
G1 X113.087 Y115.759 E.03644
G1 X112.208 Y116.52 E.03644
G1 X111.305 Y117.251 E.03644
G1 X110.377 Y117.952 E.03644
G1 X109.427 Y118.621 E.03644
G1 X108.455 Y119.257 E.03644
G1 X107.461 Y119.861 E.03644
G1 X106.448 Y120.43 E.03644
G1 X105.417 Y120.966 E.03644
G1 X104.368 Y121.466 E.03645
G1 X103.303 Y121.931 E.03644
G1 X102.336 Y122.315 E.03261
G1 X101.128 Y122.753 E.04028
G1 X100.022 Y123.108 E.03643
G1 X98.904 Y123.426 E.03644
G1 X97.776 Y123.707 E.03644
G1 X96.639 Y123.949 E.03644
G1 X95.495 Y124.153 E.03644
G1 X94.345 Y124.318 E.03644
G1 X93.189 Y124.445 E.03644
G1 X92.03 Y124.533 E.03644
G1 X90.991 Y124.576 E.03261
G1 X89.707 Y124.591 E.04029
G1 X88.545 Y124.562 E.03643
G1 X87.385 Y124.494 E.03644
G1 X86.228 Y124.386 E.03644
G1 X85.075 Y124.24 E.03644
G1 X83.927 Y124.056 E.03644
G1 X82.786 Y123.832 E.03644
G1 X81.654 Y123.571 E.03644
G1 X80.531 Y123.272 E.03644
G1 X79.418 Y122.935 E.03644
G1 X78.318 Y122.561 E.03644
G1 X77.231 Y122.15 E.03644
G1 X76.158 Y121.703 E.03644
G1 X75.101 Y121.221 E.03644
G1 X74.17 Y120.757 E.03261
G1 X73.038 Y120.15 E.04029
G1 X72.035 Y119.563 E.03643
G1 X71.052 Y118.943 E.03644
G1 X70.09 Y118.29 E.03644
G1 X69.151 Y117.605 E.03644
G1 X68.235 Y116.889 E.03644
G1 X67.344 Y116.143 E.03644
G1 X66.479 Y115.367 E.03644
G1 X65.64 Y114.563 E.03644
G1 X64.829 Y113.731 E.03644
G1 X64.046 Y112.872 E.03644
G1 X63.292 Y111.987 E.03644
G1 X62.568 Y111.078 E.03644
G1 X61.876 Y110.144 E.03644
G1 X61.215 Y109.188 E.03644
G1 X60.586 Y108.211 E.03644
G1 X59.991 Y107.212 E.03644
G1 X59.43 Y106.195 E.03644
G1 X58.903 Y105.158 E.03644
G1 X58.412 Y104.105 E.03644
G1 X57.956 Y103.036 E.03644
G1 X57.536 Y101.953 E.03644
G1 X57.153 Y100.855 E.03644
G1 X56.806 Y99.746 E.03644
G1 X56.498 Y98.625 E.03644
G1 X56.255 Y97.614 E.03261
G1 X55.994 Y96.356 E.04029
G1 X55.8 Y95.21 E.03643
G1 X55.644 Y94.059 E.03644
G1 X55.527 Y92.902 E.03644
G1 X55.449 Y91.743 E.03644
G1 X55.41 Y90.581 E.03644
G1 X55.41 Y89.419 E.03644
G1 X55.449 Y88.257 E.03644
G1 X55.527 Y87.098 E.03644
G1 X55.644 Y85.941 E.03644
G1 X55.8 Y84.79 E.03644
G1 X55.994 Y83.644 E.03644
G1 X56.227 Y82.505 E.03644
G1 X56.498 Y81.375 E.03644
G1 X56.806 Y80.254 E.03644
G1 X57.153 Y79.145 E.03644
G1 X57.536 Y78.047 E.03644
G1 X57.956 Y76.964 E.03644
G1 X58.412 Y75.895 E.03644
G1 X58.903 Y74.842 E.03644
G1 X59.43 Y73.805 E.03644
G1 X59.991 Y72.788 E.03644
G1 X60.586 Y71.789 E.03644
G1 X61.215 Y70.812 E.03644
G1 X61.806 Y69.956 E.03261
G1 X62.569 Y68.922 E.04028
G1 X63.292 Y68.013 E.03643
G1 X64.046 Y67.128 E.03644
G1 X64.829 Y66.269 E.03644
G1 X65.64 Y65.437 E.03644
G1 X66.479 Y64.633 E.03644
G1 X67.344 Y63.857 E.03644
G1 X68.235 Y63.111 E.03644
G1 X69.151 Y62.395 E.03644
G1 X70.09 Y61.71 E.03644
G1 X71.052 Y61.057 E.03644
G1 X72.035 Y60.437 E.03644
G1 X73.038 Y59.85 E.03644
G1 X74.06 Y59.298 E.03644
G1 X75.101 Y58.779 E.03644
G1 X76.158 Y58.297 E.03644
G1 X77.231 Y57.85 E.03644
G1 X78.318 Y57.439 E.03644
G1 X79.418 Y57.065 E.03644
G1 X80.531 Y56.728 E.03644
G1 X81.654 Y56.429 E.03644
G1 X82.786 Y56.168 E.03644
G1 X83.927 Y55.944 E.03644
G1 X85.075 Y55.76 E.03644
G1 X86.228 Y55.614 E.03644
G1 X87.385 Y55.506 E.03644
G1 X88.545 Y55.438 E.03644
G1 X89.707 Y55.409 E.03644
G1 X91.971 Y55.466 E.07102
M204 P1000
G1 X92.213 Y55.824 F9000
G1 E-2.24 F4200
;WIPE_START
G1 F7200
G1 X93.189 Y55.555 E-.67672
G1 X93.611 Y55.601 E-.23528
;WIPE_END
G1 E-.048 F4200
G1 Z.4 F720
G1 X111.59 Y63.61 F9000
G1 Z.2 F720
G1 E3.2 F2400
M204 P800
; stop printing object helper_disk.stl id:0 copy 0
; my code start

; my code end
G1 E-2.24 F4200
;WIPE_START
G1 F7200;_WIPE
G1 X64.695 Y67.12 E-.912
;WIPE_END
G1 E-.048 F4200
G1 Z1.15 F720
M107
;TYPE:Custom
; Filament-specific end gcode
G1 E-1 F2100 ; retract
G1 Z2.95 F720 ; Move print head up
G1 X178 Y178 F4200 ; park print head
G1 Z30.95 F720 ; Move print head further up
G4 ; wait
M104 S0 ; turn off temperature
M140 S0 ; turn off heatbed
M107 ; turn off fan
M221 S100 ; reset flow
M900 K0 ; reset LA
M84 ; disable motors
M73 P100 R0
; filament used [mm] = 1542.61
; filament used [cm3] = 3.71
; filament used [g] = 4.60
; filament cost = 0.17
; total filament used [g] = 4.60
; total filament cost = 0.17
; estimated printing time (normal mode) = 22m 52s

; prusaslicer_config = begin
; avoid_crossing_perimeters = 0
; avoid_crossing_perimeters_max_detour = 0
; bed_custom_model = 
; bed_custom_texture = 
; bed_shape = 0x0,180x0,180x180,0x180
; bed_temperature = 60
; before_layer_gcode = ;BEFORE_LAYER_CHANGE\nG92 E0.0\n;[layer_z]\n\n
; between_objects_gcode = 
; bottom_fill_pattern = monotonic
; bottom_solid_layers = 5
; bottom_solid_min_thickness = 0.5
; bridge_acceleration = 1000
; bridge_angle = 0
; bridge_fan_speed = 100
; bridge_flow_ratio = 1
; bridge_speed = 25
; brim_separation = 0.1
; brim_type = outer_only
; brim_width = 0
; clip_multipart_objects = 1
; color_change_gcode = M600
