; generated by PrusaSlicer 2.5.0+win64 on 2023-05-24 at 22:21:43 UTC


;
;

;
;
; 

; external perimeters extrusion width = 0.45mm
; perimeters extrusion width = 0.45mm
; infill extrusion width = 0.45mm
; solid infill extrusion width = 0.45mm
; top infill extrusion width = 0.40mm
; first layer extrusion width = 0.42mm

M73 P0 R0
M201 X2500 Y2500 Z400 E5000 ; sets maximum accelerations, mm/sec^2
M203 X180 Y180 Z12 E80 ; sets maximum feedrates, mm / sec
M204 P1250 R1250 T2500 ; sets acceleration (P, T) and retract acceleration (R), mm/sec^2
M205 X8.00 Y8.00 Z2.00 E10.00 ; sets the jerk limits, mm/sec
M205 S0 T0 ; sets the minimum extruding and travel feed rate, mm/sec
M107
;TYPE:Custom
M862.3 P "MINI" ; printer model check
G90 ; use absolute coordinates
M83 ; extruder relative mode
M104 S170 ; set extruder temp for bed leveling
M140 S60 ; set bed temp
M109 R170 ; wait for bed leveling temp
M190 S60 ; wait for bed temp
M204 T1250 ; set travel acceleration
G28 ; home all without mesh bed level
G29 ; mesh bed leveling 
M204 T2500 ; restore travel acceleration
M104 S215 ; set extruder temp
G92 E0
G1 Y-2 X179 F2400
G1 Z3 F720
M109 S215 ; wait for extruder temp

; intro line
M73 P8 R0
G1 X170 F1000
G1 Z0.2 F720
M73 P9 R0
G1 X110 E8 F900
G1 X40 E10 F700
G92 E0

M221 S95 ; set flow
G21 ; set units to millimeters
G90 ; use absolute coordinates
M83 ; use relative distances for extrusion
M900 K0.2 ; Filament gcode LA 1.5
; ; Filament gcode LA 1.0
M107
;Z:0.2
;HEIGHT:0.2
G92 E0.0
;0.2


M73 P17 R0
G1 E-3.2 F4200
M73 P28 R0
G1 Z.2 F720
;0.2
G1 Z.4
G1 X19.56 Y148.394 F9000
G1 Z.2 F720
M73 P30 R0
G1 E3.2 F2400
M204 P800
;TYPE:Skirt/Brim
;WIDTH:0.42
G1 F1200
G1 X20.622 Y148.254 E.03359
G1 X21.693 Y148.222 E.03358
G1 X22.761 Y148.297 E.03358
G1 X23.817 Y148.48 E.03359
G1 X24.848 Y148.768 E.03358
G1 X25.846 Y149.158 E.03358
G1 X27.492 Y150.084 E.05922
G1 X28.343 Y150.734 E.03359
M73 P31 R0
G1 X29.125 Y151.466 E.03358
G1 X29.83 Y152.273 E.03359
G1 X30.449 Y153.147 E.03358
G1 X31.371 Y154.961 E.06381
G1 X31.712 Y155.976 E.03358
G1 X31.95 Y157.021 E.03359
G1 X32.081 Y158.084 E.03358
G1 X32.104 Y159.155 E.03359
M73 P32 R0
G1 X32.019 Y160.223 E.03358
G1 X31.828 Y161.277 E.03359
G1 X31.235 Y163.07 E.05922
G1 X30.761 Y164.03 E.03358
G1 X30.193 Y164.938 E.03359
G1 X28.873 Y166.487 E.0638
G1 X28.067 Y167.193 E.03359
G1 X27.194 Y167.814 E.03359
G1 X26.263 Y168.343 E.03358
M73 P33 R0
G1 X25.283 Y168.777 E.03358
G1 X24.265 Y169.109 E.03358
G1 X23.219 Y169.338 E.03358
G1 X21.335 Y169.48 E.05922
G1 X20.266 Y169.412 E.03359
G1 X19.21 Y169.237 E.03358
G1 X17.272 Y168.614 E.0638
G1 X15.611 Y167.716 E.05922
G1 X14.749 Y167.081 E.03358
M73 P34 R0
G1 X13.955 Y166.362 E.03358
G1 X13.237 Y165.567 E.03358
G1 X12.603 Y164.704 E.03358
G1 X11.65 Y162.905 E.0638
G1 X11.292 Y161.896 E.03359
G1 X11.037 Y160.855 E.03358
G1 X10.888 Y159.795 E.03359
G1 X10.847 Y158.724 E.03358
M73 P35 R0
G1 X10.914 Y157.655 E.03358
G1 X11.088 Y156.598 E.03359
G1 X11.367 Y155.564 E.03359
G1 X11.749 Y154.564 E.03358
G1 X12.661 Y152.91 E.05922
G1 X13.304 Y152.053 E.03358
G1 X14.029 Y151.265 E.03359
G1 X14.83 Y150.554 E.03359
G1 X15.699 Y149.927 E.03358
G1 X17.505 Y148.989 E.0638
M73 P36 R0
G1 X18.518 Y148.64 E.03358
G1 X19.502 Y148.408 E.0317
M204 P1000
G1 X19.588 Y148.774 F9000
M204 P800
G1 F1200
G1 X20.657 Y148.629 E.03382
G1 X21.689 Y148.599 E.03239
G1 X22.72 Y148.672 E.03239
G1 X23.738 Y148.849 E.0324
G1 X24.733 Y149.127 E.03239
G1 X25.695 Y149.504 E.03239
G1 X27.275 Y150.393 E.05684
M73 P37 R0
G1 X28.097 Y151.019 E.03239
G1 X28.851 Y151.725 E.03239
G1 X29.531 Y152.503 E.0324
G1 X30.128 Y153.346 E.03239
G1 X31.022 Y155.103 E.06182
G1 X31.351 Y156.083 E.03239
G1 X31.579 Y157.09 E.0324
G1 X31.705 Y158.116 E.03239
G1 X31.727 Y159.149 E.03239
M73 P38 R0
G1 X31.645 Y160.178 E.03239
G1 X31.46 Y161.195 E.0324
G1 X30.891 Y162.916 E.05684
G1 X30.434 Y163.843 E.03239
G1 X29.886 Y164.719 E.03239
G1 X28.607 Y166.22 E.06182
G1 X27.83 Y166.9 E.0324
G1 X26.987 Y167.498 E.0324
G1 X26.089 Y168.009 E.03239
M73 P39 R0
G1 X25.144 Y168.426 E.03239
G1 X24.162 Y168.747 E.03239
G1 X23.153 Y168.967 E.03239
G1 X21.345 Y169.103 E.05684
G1 X20.314 Y169.038 E.0324
G1 X19.295 Y168.869 E.03239
G1 X17.418 Y168.266 E.06182
G1 X15.823 Y167.404 E.05684
G1 X14.991 Y166.792 E.03239
M73 P40 R0
G1 X14.225 Y166.099 E.03239
G1 X13.532 Y165.332 E.03239
G1 X12.92 Y164.5 E.03239
G1 X11.997 Y162.757 E.06182
G1 X11.652 Y161.784 E.0324
G1 X11.407 Y160.78 E.03239
G1 X11.264 Y159.757 E.03239
G1 X11.224 Y158.724 E.03239
G1 X11.289 Y157.693 E.03239
M73 P41 R0
G1 X11.457 Y156.674 E.03239
G1 X11.727 Y155.677 E.03239
G1 X12.096 Y154.712 E.03239
G1 X12.971 Y153.124 E.05684
G1 X13.591 Y152.297 E.03239
G1 X14.29 Y151.537 E.03239
G1 X15.063 Y150.851 E.0324
G1 X15.9 Y150.246 E.03239
G1 X17.65 Y149.338 E.06182
G1 X18.627 Y149.001 E.03239
M73 P42 R0
G1 X19.53 Y148.788 E.02908
M204 P1000
G1 X19.616 Y149.155 F9000
M204 P800
G1 F1200
G1 X20.692 Y149.005 E.03406
G1 X21.686 Y148.976 E.0312
G1 X22.679 Y149.047 E.0312
G1 X23.659 Y149.218 E.0312
G1 X24.618 Y149.486 E.0312
G1 X25.544 Y149.85 E.0312
G1 X27.058 Y150.701 E.05446
G1 X27.85 Y151.304 E.0312
M73 P43 R0
G1 X28.577 Y151.984 E.0312
G1 X29.765 Y153.477 E.05984
G1 X30.263 Y154.338 E.0312
G1 X30.673 Y155.245 E.0312
G1 X30.989 Y156.189 E.0312
G1 X31.208 Y157.16 E.03121
G1 X31.329 Y158.147 E.0312
G1 X31.35 Y159.142 E.0312
G1 X31.27 Y160.134 E.0312
G1 X31.091 Y161.113 E.0312
M73 P44 R0
G1 X30.546 Y162.762 E.05446
G1 X30.107 Y163.655 E.0312
G1 X29.579 Y164.499 E.0312
G1 X28.342 Y165.952 E.05983
G1 X27.592 Y166.607 E.0312
G1 X26.781 Y167.183 E.0312
G1 X25.916 Y167.674 E.0312
G1 X25.005 Y168.076 E.0312
G1 X24.059 Y168.384 E.0312
G1 X23.086 Y168.595 E.0312
M73 P45 R0
G1 X21.354 Y168.726 E.05446
G1 X19.458 Y168.519 E.05983
G1 X18.495 Y168.266 E.0312
G1 X17.563 Y167.918 E.0312
G1 X16.67 Y167.478 E.0312
G1 X15.826 Y166.951 E.0312
G1 X14.407 Y165.745 E.05839
G1 X13.237 Y164.296 E.05839
M73 P46 R0
G1 X12.731 Y163.439 E.0312
G1 X12.314 Y162.535 E.0312
G1 X11.776 Y160.704 E.05983
G1 X11.639 Y159.719 E.0312
G1 X11.601 Y158.724 E.0312
G1 X11.664 Y157.731 E.0312
G1 X11.827 Y156.749 E.0312
G1 X12.087 Y155.789 E.0312
G1 X12.443 Y154.86 E.0312
G1 X13.282 Y153.339 E.05446
M73 P47 R0
G1 X13.878 Y152.542 E.0312
G1 X14.551 Y151.809 E.0312
G1 X15.295 Y151.148 E.0312
G1 X16.101 Y150.565 E.0312
G1 X17.795 Y149.686 E.05984
G1 X18.736 Y149.362 E.0312
G1 X19.557 Y149.169 E.02645
M204 P1000
; printing object helper_disk.stl id:0 copy 0
G1 E-2.24 F4200
;WIPE_START
G1 F7200
M73 P48 R0
G1 X20.692 Y149.005 E-.63505
G1 X21.191 Y148.99 E-.27695
;WIPE_END
G1 E-.048 F4200
G1 Z.4 F720
G1 X27.555 Y156.003 F9000
G1 Z.2 F720
G1 E3.2 F2400
M204 P800
;TYPE:Perimeter
;WIDTH:0.419999
G1 F1200
G1 X27.951 Y157.077 E.0359
G1 X28.033 Y157.449 E.01195
G1 X28.137 Y158.085 E.02019
G1 X28.18 Y158.717 E.01986
G1 X28.186 Y159.076 E.01126
G1 X28.129 Y159.75 E.02121
G1 X28.005 Y160.415 E.0212
M73 P49 R0
G1 X27.817 Y161.055 E.02091
G1 X27.35 Y162.1 E.0359
G1 X26.999 Y162.667 E.02091
G1 X26.587 Y163.203 E.0212
G1 X26.123 Y163.695 E.0212
G1 X25.612 Y164.138 E.02121
G1 X25.059 Y164.527 E.0212
G1 X24.469 Y164.859 E.0212
G1 X23.849 Y165.129 E.02121
G1 X23.206 Y165.336 E.0212
G1 X22.544 Y165.477 E.0212
G1 X21.872 Y165.551 E.02121
G1 X21.205 Y165.557 E.02091
G1 X20.069 Y165.413 E.0359
G1 X19.425 Y165.241 E.02091
M73 P50 R0
G1 X18.792 Y165.002 E.0212
G1 X18.187 Y164.701 E.02121
G1 X17.615 Y164.34 E.0212
G1 X17.082 Y163.923 E.02121
G1 X16.594 Y163.455 E.02121
G1 X16.155 Y162.94 E.0212
G1 X15.776 Y162.392 E.02091
G1 X15.257 Y161.371 E.0359
G1 X15.037 Y160.741 E.02091
G1 X14.88 Y160.084 E.0212
G1 X14.789 Y159.414 E.0212
G1 X14.766 Y158.738 E.0212
G1 X14.812 Y158.063 E.0212
G1 X14.925 Y157.396 E.02121
G1 X15.104 Y156.744 E.0212
G1 X15.349 Y156.113 E.02121
M73 P51 R0
G1 X15.655 Y155.511 E.0212
G1 X16.021 Y154.942 E.02121
G1 X16.442 Y154.412 E.02121
G1 X16.907 Y153.935 E.02091
G1 X17.809 Y153.23 E.0359
G1 X18.385 Y152.893 E.02091
G1 X19 Y152.612 E.0212
G1 X19.641 Y152.394 E.02121
G1 X20.299 Y152.242 E.0212
G1 X20.97 Y152.157 E.02121
G1 X21.646 Y152.14 E.0212
G1 X22.321 Y152.191 E.02121
G1 X22.987 Y152.31 E.0212
G1 X23.637 Y152.495 E.02121
G1 X24.266 Y152.745 E.02121
M73 P52 R0
G1 X24.866 Y153.056 E.0212
G1 X25.432 Y153.427 E.02121
G1 X25.957 Y153.852 E.0212
G1 X26.438 Y154.328 E.02121
G1 X26.868 Y154.851 E.0212
G1 X27.243 Y155.413 E.02121
G1 X27.527 Y155.95 E.01903
M204 P1000
G1 X27.9 Y155.849 F9000
M204 P800
;TYPE:External perimeter
G1 F1200
G1 X28.313 Y156.971 E.03749
G1 X28.401 Y157.368 E.01275
G1 X28.512 Y158.041 E.02138
G1 X28.557 Y158.71 E.02105
G1 X28.563 Y159.089 E.01186
G1 X28.503 Y159.8 E.0224
G1 X28.372 Y160.503 E.0224
G1 X28.171 Y161.185 E.0223
G1 X27.684 Y162.277 E.03749
M73 P53 R0
G1 X27.309 Y162.882 E.0223
G1 X26.874 Y163.448 E.0224
G1 X26.384 Y163.968 E.0224
G1 X25.844 Y164.436 E.0224
G1 X25.26 Y164.847 E.0224
G1 X24.638 Y165.197 E.0224
G1 X23.983 Y165.483 E.0224
G1 X23.303 Y165.701 E.0224
G1 X22.604 Y165.85 E.0224
G1 X21.894 Y165.928 E.0224
G1 X21.183 Y165.934 E.0223
G1 X19.996 Y165.784 E.03749
G1 X19.309 Y165.6 E.0223
G1 X18.641 Y165.348 E.0224
M73 P54 R0
G1 X18.001 Y165.03 E.0224
G1 X17.397 Y164.648 E.0224
G1 X16.835 Y164.208 E.0224
G1 X16.319 Y163.714 E.0224
G1 X15.856 Y163.17 E.0224
G1 X15.451 Y162.585 E.0223
G1 X14.909 Y161.519 E.03749
G1 X14.675 Y160.848 E.0223
G1 X14.508 Y160.153 E.0224
G1 X14.413 Y159.445 E.0224
G1 X14.389 Y158.731 E.0224
G1 X14.437 Y158.019 E.0224
G1 X14.556 Y157.314 E.0224
G1 X14.746 Y156.626 E.0224
G1 X15.004 Y155.96 E.0224
M73 P55 R0
G1 X15.328 Y155.323 E.0224
G1 X15.714 Y154.722 E.0224
G1 X16.159 Y154.163 E.0224
G1 X16.655 Y153.653 E.0223
G1 X17.597 Y152.917 E.03749
G1 X18.211 Y152.558 E.0223
G1 X18.861 Y152.261 E.0224
G1 X19.537 Y152.031 E.0224
G1 X20.233 Y151.871 E.0224
G1 X20.942 Y151.781 E.0224
G1 X21.656 Y151.763 E.0224
G1 X22.368 Y151.817 E.0224
G1 X23.072 Y151.942 E.0224
G1 X23.759 Y152.138 E.0224
G1 X24.423 Y152.401 E.0224
M73 P56 R0
G1 X25.057 Y152.73 E.0224
G1 X25.654 Y153.122 E.0224
G1 X26.209 Y153.571 E.0224
G1 X26.717 Y154.074 E.0224
G1 X27.171 Y154.626 E.0224
G1 X27.567 Y155.22 E.0224
G1 X27.872 Y155.795 E.02042
M204 P1000
G1 X27.663 Y156.171 F9000
G1 E-2.24 F4200
;WIPE_START
G1 F7200
G1 X28.313 Y156.971 E-.69564
G1 X28.398 Y157.352 E-.21636
;WIPE_END
G1 E-.048 F4200
G1 Z.4 F720
G1 X24.965 Y153.257 F9000
G1 Z.2 F720
M73 P57 R0
G1 E3.2 F2400
M204 P800
;TYPE:Solid infill
;WIDTH:0.420794
G1 F1200
G1 X26.231 Y154.523 E.05625
G1 X26.64 Y155.019 E.02022
G1 X26.999 Y155.558 E.02035
G1 X27.298 Y156.124 E.0201
G1 X24.207 Y153.033 E.13734
G1 X23.546 Y152.763 E.02245
M73 P58 R0
G1 X23.346 Y152.707 E.00652
G1 X27.61 Y156.97 E.18944
G1 X27.679 Y157.157 E.00627
G1 X27.797 Y157.692 E.01721
G1 X22.641 Y152.536 E.22911
G1 X22.285 Y152.472 E.01136
M73 P59 R0
G1 X22.024 Y152.453 E.00824
G1 X27.879 Y158.308 E.26017
G1 X27.899 Y158.863 E.01745
M73 P60 R0
G1 X21.465 Y152.428 E.28593
G1 X20.948 Y152.445 E.01625
M73 P61 R0
G1 X27.877 Y159.375 E.3079
G1 X27.822 Y159.854 E.01516
M73 P62 R0
G1 X20.473 Y152.505 E.32653
G1 X20.029 Y152.595 E.01425
M73 P63 R0
G1 X27.738 Y160.304 E.34255
G1 X27.62 Y160.721 E.01361
M73 P64 R0
G1 X19.604 Y152.705 E.35617
G1 X19.206 Y152.841 E.01324
M73 P65 R0
G1 X27.48 Y161.115 E.36767
G1 X27.315 Y161.485 E.01271
M73 P66 R0
G1 X18.831 Y153 E.377
G1 X18.468 Y153.172 E.01261
M73 P67 R0
G1 X27.15 Y161.854 E.38578
G1 X26.958 Y162.196 E.01233
M73 P68 R0
G1 X18.131 Y153.369 E.39222
G1 X17.969 Y153.464 E.00591
M73 P69 R0
G1 X17.813 Y153.586 E.00621
G1 X26.752 Y162.525 E.39719
G1 X26.519 Y162.827 E.01197
M73 P71 R0
G1 X17.513 Y153.82 E.4002
G1 X17.213 Y154.055 E.01196
M73 P72 R0
G1 X26.277 Y163.119 E.40277
G1 X26.018 Y163.394 E.01188
M73 P73 R0
G1 X16.935 Y154.311 E.40359
G1 X16.671 Y154.582 E.01187
M73 P74 R0
G1 X25.741 Y163.652 E.40302
G1 X25.455 Y163.9 E.0119
M73 P75 R0
G1 X16.433 Y154.878 E.40089
G1 X16.203 Y155.182 E.01199
M73 P77 R0
G1 X25.143 Y164.122 E.39727
G1 X24.822 Y164.336 E.01211
M73 P78 R0
G1 X15.993 Y155.507 E.3923
G1 X15.801 Y155.849 E.01232
M73 P79 R0
G1 X24.48 Y164.528 E.38568
G1 X24.12 Y164.703 E.01257
M73 P80 R0
G1 X15.62 Y156.203 E.37769
G1 X15.469 Y156.586 E.01294
M73 P81 R0
G1 X23.748 Y164.865 E.36789
G1 X23.344 Y164.995 E.01335
M73 P82 R0
G1 X15.332 Y156.983 E.35601
G1 X15.216 Y157.402 E.01365
M73 P83 R0
G1 X22.922 Y165.108 E.3424
M73 P84 R0
G1 X22.48 Y165.2 E.01419
M73 P85 R0
G1 X15.134 Y157.854 E.32642
G1 X15.077 Y158.331 E.01511
M73 P86 R0
G1 X21.998 Y165.253 E.30755
G1 X21.483 Y165.271 E.01621
G1 X15.053 Y158.841 E.28572
M73 P87 R0
G1 X15.072 Y159.395 E.0174
G1 X20.911 Y165.234 E.25947
G1 X20.299 Y165.157 E.01938
M73 P88 R0
G1 X15.155 Y160.013 E.22857
G1 X15.33 Y160.722 E.02294
M73 P89 R0
G1 X19.604 Y164.996 E.18993
G1 X18.905 Y164.742 E.02336
M73 P90 R0
G1 X18.728 Y164.654 E.00624
G1 X15.708 Y161.635 E.13416
G1 X16.019 Y162.246 E.02156
G1 X16.38 Y162.768 E.01991
G1 X16.798 Y163.259 E.02027
G1 X17.968 Y164.429 E.052
M204 P1000
; stop printing object helper_disk.stl id:0 copy 0
; my code start
G1 F1200
G0 Z0.2
;LAYER_CHANGE
;0.2
;TYPE:External perimeter
G1 X27.8500019429687 Y57.98855275527832 F9000
G1 F1200
G1 X27.85062850699458 Y57.78752965347168 E0.0066860879906326266
G1 X27.850643750066777 Y57.78506849568939 E8.186001019355412e-05
G1 X27.852507229681034 Y57.58404920858001 E0.006686215910087412
G1 X27.852537649527907 Y57.581586013132885 E8.193246052034061e-05
G1 X27.85563899840486 Y57.38058579950984 E0.006686089992530652
G1 X27.85568470996665 Y57.3781171486256 E8.212173681847541e-05
G1 X27.860026789129247 Y57.17713600848888 E0.0066862197151025685
G1 X27.860087756094384 Y57.17466703377352 E8.214346473432282e-05
G1 X27.865670565542626 Y56.97372022591219 E0.006686096867913826
G1 X27.865746912908154 Y56.97124762970282 E8.227807836674686e-05
G1 X27.872572359990674 Y56.77033896881415 E0.006686104263419594
G1 X27.87266417008959 Y56.76786259414985 E8.242114181395975e-05
G1 X27.88073416215502 Y56.56699970962836 E0.00668611637476244
G1 X27.88084142763471 Y56.56452145906056 E8.250412158379052e-05
G1 X27.890156918357366 Y56.36371198030079 E0.0066861330835657476
G1 X27.890279686183522 Y56.361231861444466 E8.25900889010759e-05
G1 X27.90084162923772 Y56.16048341784095 E0.00668615518160801
G1 X27.90097994799709 Y56.158001439597456 E8.267902338185963e-05
G1 X27.91278929705715 Y55.95732166054472 E0.006686183489988408
G1 X27.912943248960424 Y55.95483734115951 E8.278730229948426e-05
G1 X27.92600095770066 Y55.754237670749355 E0.006686092249715665
G1 X27.926170536876967 Y55.75175195902696 E8.286727680398813e-05
G1 X27.940477558971693 Y55.55123621195665 E0.006686135613101398
G1 X27.94066299134404 Y55.54874678962687 E8.302790806395102e-05
G1 X27.956221234141893 Y55.34832259529093 E0.006686190285748468
G1 X27.956422188355997 Y55.34583450324946 E8.302375032313574e-05
G1 X27.973230698182658 Y55.1455133057397 E0.0066861234084968696
G1 X27.97344712379093 Y55.143027087382684 E8.300467540465776e-05
G1 X27.991504946972082 Y54.94281651609362 E0.006686061335318722
G1 X27.99173767078566 Y54.94032350090962 E8.327852368849357e-05
G1 X28.01104862201857 Y54.74022737053853 E0.006686145418014938
G1 X28.011297168357864 Y54.737733704096584 E8.335063905393257e-05
G1 X28.03186124764253 Y54.537763458735256 E0.006686112837088795
G1 X28.032124879222128 Y54.53527627874105 E8.31873541147983e-05
G1 X28.053939225535604 Y54.335435733086754 E0.006686206235063149
G1 X28.05421964933039 Y54.33293946568432 E8.354842944402313e-05
G1 X28.07728807736994 Y54.133243878526116 E0.00668607143370087
G1 X28.077583716398248 Y54.13075315882112 E8.34232022932762e-05
G1 X28.10190431881524 Y53.93120253015901 E0.006686192644019977
G1 X28.102216276671147 Y53.92870820351078 E8.36079560193561e-05
G1 X28.127790007139897 Y53.72931779213383 E0.0066860773847840305
G1 X28.128117130500062 Y53.72682921530256 E8.348243766313583e-05
G1 X28.154942081671937 Y53.52759902121076 E0.006686217721519571
G1 X28.155285640348396 Y53.52510668899047 E8.367917145225145e-05
G1 X28.183362765897712 Y53.32605197097289 E0.006686123207457892
